img/hashtags-1.svg

<svg xmlns="http://www.w3.org/2000/svg" xmlns:xlink="http://www.w3.org/1999/xlink" stroke-width=".501" stroke-linejoin="bevel" fill-rule="evenodd" overflow="visible" width="192" height="192" viewBox="0 0 144 144" xmlns:v="https://vecta.io/nano"><style><![CDATA[.B{stroke:none}.C{fill:#000}.D{fill:#0d0d0d}]]></style><g transform="matrix(1 0 0 -1 0 144)" fill="none" stroke="#000"><mask id="A"><path d="M-14.4-14.4h172.8v172.8H-14.4z" class="B D"/></mask><g mask="url(#A)" class="B C"><path d="M-.575 77.31v7.981l3.222 13.095H-.575v7.372h5.009l4.411 17.958h-9.42v7.372h11.208L13.786 144h8.94l-3.154-12.912h18.773L41.499 144h9l-3.154-12.912h10.31v-7.372H45.557l-4.47-17.959h16.568v-7.371H39.299L34.114 77.31h-8.939l5.124 21.076H11.586L6.4 77.31H-.575zm32.662 28.447l4.47 17.959H17.785l-4.411-17.959h18.713z"/></g><mask id="B"><path d="M-14.4-14.4h172.8v172.8H-14.4z" class="B D"/></mask><g mask="url(#B)" class="B C"><path d="M40.322 61.935l2.282 9.274h-4.432v3.244h5.218l1.941 7.901h-7.159v3.244h7.946l2.281 9.339h3.934l-2.282-9.339h8.26l2.282 9.339h3.96l-2.281-9.339h4.536v-3.244h-5.323l-1.967-7.902h7.29v-3.243h-8.077l-2.281-9.274h-3.934l2.255 9.274h-8.234l-2.282-9.274h-3.933zm15.236 12.517l1.967 7.902h-8.26l-1.941-7.902h8.234z"/></g><mask id="C"><path fill="#151515" d="M-14.4-14.4h172.8v172.8H-14.4z" class="B"/></mask><g mask="url(#C)" class="B C"><path d="M66.272 98.31l3.112 12.646h-6.043v4.424h7.115l2.646 10.774h-9.761v4.423h10.835l3.111 12.735h5.364l-3.112-12.735h11.263l3.113 12.735h5.4l-3.112-12.735h6.186v-4.423h-7.258l-2.682-10.776h9.94v-4.422H91.375l-3.11-12.646h-5.364l3.074 12.646H74.748L71.635 98.31h-5.363zm20.777 17.068l2.682 10.776H78.468l-2.647-10.776h11.228z"/></g><mask id="D"><path fill="#191919" d="M-14.4-14.4h172.8v172.8H-14.4z" class="B"/></mask><g mask="url(#D)" class="B C"><use xlink:href="#M"/></g><mask id="E"><path d="M-14.4-14.4h172.8v172.8H-14.4z" class="B D"/></mask><g mask="url(#E)" class="B C"><path d="M76.602 70.56l1.245 5.059h-2.418v1.769h2.847l1.059 4.31h-3.906v1.77h4.334l1.245 5.094h2.146l-1.245-5.094h4.507l1.245 5.094h2.159l-1.244-5.094h2.475v-1.77h-2.904l-1.074-4.31h3.978v-1.769h-4.406L85.4 70.56h-2.146l1.231 5.059h-4.493l-1.245-5.059h-2.145zm8.311 6.828l1.074 4.31H81.48l-1.057-4.31h4.49z"/></g><mask id="F"><path d="M-14.4-14.4h172.8v172.8H-14.4z" class="B D"/></mask><g mask="url(#F)" class="B C"><path d="M108.158 105.81l1.868 7.588h-3.627v2.654h4.27l1.589 6.464h-5.859v2.655h6.501l1.867 7.641h3.219l-1.867-7.641h6.76l1.867 7.641h3.239l-1.866-7.641h3.712v-2.655h-4.356l-1.611-6.464h5.967v-2.654h-6.609l-1.867-7.588h-3.219l1.846 7.588h-6.739l-1.867-7.588h-3.218zm12.466 10.242l1.611 6.464h-6.76l-1.585-6.464h6.734z"/></g><mask id="G"><path fill="#202020" d="M-14.4-14.4h172.8v172.8H-14.4z" class="B"/></mask><g mask="url(#G)" class="B C"><path d="M9.416 52.935l1.608 6.534H7.901v2.285h3.677l1.368 5.567H7.901v2.286h5.598l1.608 6.58h2.772l-1.608-6.58h5.821l1.608 6.58h2.789l-1.607-6.58h3.197v-2.286h-3.751l-1.387-5.567h5.138v-2.285h-5.691l-1.608-6.534h-2.772l1.59 6.534h-5.803l-1.608-6.534H9.416zm10.735 8.819l1.387 5.567h-5.821l-1.366-5.567h5.8z"/></g><mask id="H"><path d="M-14.4-14.4h172.8v172.8H-14.4z" class="B D"/></mask><g mask="url(#H)" class="B C"><path d="M74.124 36.885l.694 2.825h-1.35v.988h1.59l.591 2.406h-2.181v.988h2.42l.696 2.845h1.198l-.695-2.845h2.516l.696 2.845h1.205l-.695-2.845h1.383v-.988H80.57l-.6-2.406h2.222v-.988h-2.46l-.696-2.825h-1.198l.688 2.825h-2.509l-.696-2.825h-1.197zm4.64 3.813l.6 2.406h-2.516l-.591-2.406h2.507z"/></g><mask id="I"><path d="M-14.4-14.4h172.8v172.8H-14.4z" class="B D"/></mask><g mask="url(#I)" class="B C"><path d="M5.494 24.004l.954 3.879H4.594v1.356h2.183l.812 3.304H4.594V33.9h3.323l.955 3.906h1.645L9.563 33.9h3.455l.955 3.906h1.655l-.954-3.906h1.898v-1.357h-2.227l-.823-3.304h3.05v-1.356h-3.378l-.955-3.879h-1.645l.944 3.879H8.093l-.955-3.879H5.494zm6.372 5.235l.823 3.304H9.234l-.811-3.304h3.443z"/></g><mask id="J"><path d="M-14.4-14.4h172.8v172.8H-14.4z" class="B D"/></mask><g mask="url(#J)" class="B C"><path d="M135.174 129.941l.694 2.825h-1.35v.988h1.59l.591 2.406h-2.181v.988h2.42l.696 2.845h1.198l-.695-2.845h2.516l.696 2.845h1.205l-.695-2.845h1.383v-.988h-1.622l-.6-2.406h2.222v-.988h-2.46l-.696-2.825h-1.198l.688 2.825h-2.509l-.696-2.825h-1.197zm4.64 3.813l.6 2.406h-2.516l-.591-2.406h2.507z"/></g><mask id="K"><path d="M-14.4-14.4h172.8v172.8H-14.4z" class="B D"/></mask><g mask="url(#K)" class="B C"><use xlink:href="#M" x="63.75" y="33.375"/></g></g><defs ><path id="M" d="M39.526 38.535l.954 3.879h-1.854v1.356h2.183l.812 3.304h-2.995v1.357h3.323l.955 3.906h1.645l-.954-3.906h3.455l.955 3.906h1.655l-.954-3.906h1.898v-1.357h-2.227l-.823-3.304h3.05v-1.356h-3.378l-.955-3.879h-1.645l.944 3.879h-3.445l-.955-3.879h-1.644zm6.372 5.235l.823 3.304h-3.455l-.811-3.304h3.443z"/></defs></svg>

<?xml version="1.0" standalone="no"?>
<!DOCTYPE svg PUBLIC "-//W3C//DTD SVG 1.1//EN" "http://www.w3.org/Graphics/SVG/1.1/DTD/svg11.dtd">
<!--Generator: Xara Designer (www.xara.com), SVG filter version: 4.0.0.1-->
<svg stroke-width="0.501" stroke-linejoin="bevel" fill-rule="evenodd" xmlns:xlink="http://www.w3.org/1999/xlink" xmlns="http://www.w3.org/2000/svg" version="1.1" overflow="visible" width="144pt" height="144pt" viewBox="0 0 144 144">
 <defs>
  <marker id="DefaultArrow2" markerUnits="strokeWidth" viewBox="0 0 1 1" markerWidth="1" markerHeight="1" overflow="visible" orient="auto">
   <!-- REF_ARROW_STRAIGHT (-2) -->
   <g transform="scale(0.0092592592)">
    <!-- 1/108 -->
    <path d="M -9 54 L -9 -54 L 117 0 z"/>
   </g>
  </marker>
  <marker id="DefaultArrow3" markerUnits="strokeWidth" viewBox="0 0 1 1" markerWidth="1" markerHeight="1" overflow="visible" orient="auto">
   <!-- REF_ARROW_ANGLED -->
   <g transform="scale(0.0092592592)">
    <path d="M -27 54 L -9 0 L -27 -54 L 135 0 z"/>
   </g>
  </marker>
  <marker id="DefaultArrow4" markerUnits="strokeWidth" viewBox="0 0 1 1" markerWidth="1" markerHeight="1" overflow="visible" orient="auto">
   <!-- REF_ARROW_ROUNDED -->
   <g transform="scale(0.0092592592)">
    <path d="M -9,0 L -9,-45 C -9,-51.708 2.808,-56.580 9,-54 L 117,-9 C 120.916,-7.369 126.000,-4.242 126,0 C 126,4.242 120.916,7.369 117,9 L 9,54 C 2.808,56.580 -9,51.708 -9,45 z"/>
   </g>
  </marker>
  <marker id="DefaultArrow5" markerUnits="strokeWidth" viewBox="0 0 1 1" markerWidth="1" markerHeight="1" overflow="visible" orient="auto">
   <!-- REF_ARROW_SPOT -->
   <g transform="scale(0.0092592592)">
    <path d="M -54, 0 C -54,29.807 -29.807,54 0,54 C 29.807,54 54,29.807 54,0 C 54,-29.807 29.807,-54 0,-54 C -29.807,-54 -54,-29.807 -54,0 z"/>
   </g>
  </marker>
  <marker id="DefaultArrow6" markerUnits="strokeWidth" viewBox="0 0 1 1" markerWidth="1" markerHeight="1" overflow="visible" orient="auto">
   <!-- REF_ARROW_DIAMOND -->
   <g transform="scale(0.0092592592)">
    <path d="M -63,0 L 0,63 L 63,0 L 0,-63 z"/>
   </g>
  </marker>
  <marker id="DefaultArrow7" markerUnits="strokeWidth" viewBox="0 0 1 1" markerWidth="1" markerHeight="1" overflow="visible" orient="auto">
   <!-- REF_ARROW_FEATHER -->
   <g transform="scale(0.0092592592)">
    <path d="M 18,-54 L 108,-54 L 63,0 L 108,54 L 18, 54 L -36,0 z"/>
   </g>
  </marker>
  <marker id="DefaultArrow8" markerUnits="strokeWidth" viewBox="0 0 1 1" markerWidth="1" markerHeight="1" overflow="visible" orient="auto">
   <!-- REF_ARROW_FEATHER2 -->
   <g transform="scale(0.0092592592)">
    <path d="M -36,0 L 18,-54 L 54,-54 L 18,-18 L 27,-18 L 63,-54 L 99,-54 L 63,-18 L 72,-18 L 108,-54 L 144,-54 L 90,0 L 144,54 L 108,54 L 72,18 L 63,18 L 99,54 L 63,54 L 27,18 L 18,18 L 54,54 L 18,54 z"/>
   </g>
  </marker>
  <marker id="DefaultArrow9" markerUnits="strokeWidth" viewBox="0 0 1 1" markerWidth="1" markerHeight="1" overflow="visible" orient="auto">
   <!-- REF_ARROW_HOLLOWDIAMOND -->
   <g transform="scale(0.0092592592)">
    <path d="M 0,45 L -45,0 L 0, -45 L 45, 0 z M 0, 63 L-63, 0 L 0, -63 L 63, 0 z"/>
   </g>
  </marker>
  <filter id="StainedFilter">
   <feBlend mode="multiply" in2="BackgroundImage" in="SourceGraphic" result="blend"/>
   <feComposite in="blend" in2="SourceAlpha" operator="in" result="comp"/>
  </filter>
  <filter id="BleachFilter">
   <feBlend mode="screen" in2="BackgroundImage" in="SourceGraphic" result="blend"/>
   <feComposite in="blend" in2="SourceAlpha" operator="in" result="comp"/>
  </filter>
  <filter id="InvertTransparencyBitmapFilter">
   <feComponentTransfer>
    <feFuncR type="gamma" amplitude="1.055" exponent=".416666666" offset="-0.055"/>
    <feFuncG type="gamma" amplitude="1.055" exponent=".416666666" offset="-0.055"/>
    <feFuncB type="gamma" amplitude="1.055" exponent=".416666666" offset="-0.055"/>
   </feComponentTransfer>
   <feComponentTransfer>
    <feFuncR type="linear" slope="-1" intercept="1"/>
    <feFuncG type="linear" slope="-1" intercept="1"/>
    <feFuncB type="linear" slope="-1" intercept="1"/>
    <feFuncA type="linear" slope="1" intercept="0"/>
   </feComponentTransfer>
   <feComponentTransfer>
    <feFuncR type="gamma" amplitude="1" exponent="2.4" offset="0"/>
    <feFuncG type="gamma" amplitude="1" exponent="2.4" offset="0"/>
    <feFuncB type="gamma" amplitude="1" exponent="2.4" offset="0"/>
   </feComponentTransfer>
  </filter>
 </defs>
 <g id="Document" fill="none" stroke="black" font-family="Times New Roman" font-size="16" transform="scale(1 -1)">
  <g id="Spread" transform="translate(0 -144)">
   <g id="Layer 1">
    <g id="Group">
     <mask id="TranspMask">
      <rect x="-10%" y="-10%" width="120%" height="120%" fill="#0d0d0d" stroke="none"/>
     </mask>
     <g id="Group_1" mask="url(#TranspMask)">
      <path d="M 62.616,144 L 62.616,77.31 L -0.575,77.31" stroke="none"/>
      <path d="M -0.575,77.31 L -0.575,85.291 L 2.647,98.386 L -0.575,98.386 L -0.575,105.758 L 4.434,105.758 L 8.845,123.716 L -0.575,123.716 L -0.575,131.088 L 10.633,131.088 L 13.786,144 L 22.726,144 L 19.572,131.088 L 38.345,131.088 L 41.499,144 L 50.499,144 L 47.345,131.088 L 57.655,131.088 L 57.655,123.716 L 45.557,123.716 L 41.087,105.757 L 57.655,105.757 L 57.655,98.386 L 39.299,98.386 L 34.114,77.31 L 25.175,77.31 L 30.299,98.386 L 11.586,98.386 L 6.4,77.31 L -0.575,77.31 Z M 32.087,105.757 L 36.557,123.716 L 17.785,123.716 L 13.374,105.757 L 32.087,105.757 Z" stroke-width="0.153" stroke="none" fill="#000000" stroke-linejoin="miter" marker-start="none" marker-end="none" stroke-miterlimit="79.8403193612775"/>
     </g>
     <mask id="TranspMask_1">
      <rect x="-10%" y="-10%" width="120%" height="120%" fill="#0d0d0d" stroke="none"/>
     </mask>
     <g id="Group_2" mask="url(#TranspMask_1)">
      <path d="M 35.989,61.935 L 35.989,94.937 L 68.991,94.937 L 68.991,61.935 L 35.989,61.935 Z" stroke="none" marker-start="none" marker-end="none"/>
      <path d="M 40.322,61.935 L 42.604,71.209 L 38.172,71.209 L 38.172,74.453 L 43.39,74.453 L 45.331,82.354 L 38.172,82.354 L 38.172,85.598 L 46.118,85.598 L 48.399,94.937 L 52.333,94.937 L 50.051,85.598 L 58.311,85.598 L 60.593,94.937 L 64.553,94.937 L 62.272,85.598 L 66.808,85.598 L 66.808,82.354 L 61.485,82.354 L 59.518,74.452 L 66.808,74.452 L 66.808,71.209 L 58.731,71.209 L 56.45,61.935 L 52.516,61.935 L 54.771,71.209 L 46.537,71.209 L 44.255,61.935 L 40.322,61.935 Z M 55.558,74.452 L 57.525,82.354 L 49.265,82.354 L 47.324,74.452 L 55.558,74.452 Z" stroke-width="0.067" stroke="none" fill="#000000" stroke-linejoin="miter" marker-start="none" marker-end="none" stroke-miterlimit="79.8403193612775"/>
     </g>
     <mask id="TranspMask_2">
      <rect x="-10%" y="-10%" width="120%" height="120%" fill="#151515" stroke="none"/>
     </mask>
     <g id="Group_3" mask="url(#TranspMask_2)">
      <path d="M 60.364,98.31 L 60.364,143.312 L 105.366,143.312 L 105.366,98.31 L 60.364,98.31 Z" stroke="none" marker-start="none" marker-end="none"/>
      <path d="M 66.272,98.31 L 69.384,110.956 L 63.341,110.956 L 63.341,115.38 L 70.456,115.38 L 73.102,126.154 L 63.341,126.154 L 63.341,130.577 L 74.176,130.577 L 77.287,143.312 L 82.651,143.312 L 79.539,130.577 L 90.802,130.577 L 93.915,143.312 L 99.315,143.312 L 96.203,130.577 L 102.389,130.577 L 102.389,126.154 L 95.131,126.154 L 92.449,115.378 L 102.389,115.378 L 102.389,110.956 L 91.375,110.956 L 88.265,98.31 L 82.901,98.31 L 85.975,110.956 L 74.748,110.956 L 71.635,98.31 L 66.272,98.31 Z M 87.049,115.378 L 89.731,126.154 L 78.468,126.154 L 75.821,115.378 L 87.049,115.378 Z" stroke-width="0.091" stroke="none" fill="#000000" stroke-linejoin="miter" marker-start="none" marker-end="none" stroke-miterlimit="79.8403193612775"/>
     </g>
     <mask id="TranspMask_3">
      <rect x="-10%" y="-10%" width="120%" height="120%" fill="#191919" stroke="none"/>
     </mask>
     <g id="Group_4" mask="url(#TranspMask_3)">
      <path d="M 37.714,38.535 L 37.714,52.337 L 51.516,52.337 L 51.516,38.535 L 37.714,38.535 Z" stroke="none" marker-start="none" marker-end="none"/>
      <path d="M 39.526,38.535 L 40.48,42.414 L 38.626,42.414 L 38.626,43.77 L 40.809,43.77 L 41.621,47.074 L 38.626,47.074 L 38.626,48.431 L 41.949,48.431 L 42.904,52.337 L 44.549,52.337 L 43.595,48.431 L 47.05,48.431 L 48.005,52.337 L 49.66,52.337 L 48.706,48.431 L 50.604,48.431 L 50.604,47.074 L 48.377,47.074 L 47.554,43.77 L 50.604,43.77 L 50.604,42.414 L 47.226,42.414 L 46.271,38.535 L 44.626,38.535 L 45.57,42.414 L 42.125,42.414 L 41.17,38.535 L 39.526,38.535 Z M 45.898,43.77 L 46.721,47.074 L 43.266,47.074 L 42.455,43.77 L 45.898,43.77 Z" stroke-width="0.028" stroke="none" fill="#000000" stroke-linejoin="miter" marker-start="none" marker-end="none" stroke-miterlimit="79.8403193612775"/>
     </g>
     <mask id="TranspMask_4">
      <rect x="-10%" y="-10%" width="120%" height="120%" fill="#0d0d0d" stroke="none"/>
     </mask>
     <g id="Group_5" mask="url(#TranspMask_4)">
      <path d="M 74.239,70.56 L 74.239,88.562 L 92.241,88.562 L 92.241,70.56 L 74.239,70.56 Z" stroke="none" marker-start="none" marker-end="none"/>
      <path d="M 76.602,70.56 L 77.847,75.619 L 75.429,75.619 L 75.429,77.388 L 78.276,77.388 L 79.335,81.698 L 75.429,81.698 L 75.429,83.468 L 79.763,83.468 L 81.008,88.562 L 83.154,88.562 L 81.909,83.468 L 86.416,83.468 L 87.661,88.562 L 89.82,88.562 L 88.576,83.468 L 91.051,83.468 L 91.051,81.698 L 88.147,81.698 L 87.073,77.388 L 91.051,77.388 L 91.051,75.619 L 86.645,75.619 L 85.4,70.56 L 83.254,70.56 L 84.485,75.619 L 79.992,75.619 L 78.747,70.56 L 76.602,70.56 Z M 84.913,77.388 L 85.987,81.698 L 81.48,81.698 L 80.423,77.388 L 84.913,77.388 Z" stroke-width="0.037" stroke="none" fill="#000000" stroke-linejoin="miter" marker-start="none" marker-end="none" stroke-miterlimit="79.8403193612775"/>
     </g>
     <mask id="TranspMask_5">
      <rect x="-10%" y="-10%" width="120%" height="120%" fill="#0d0d0d" stroke="none"/>
     </mask>
     <g id="Group_6" mask="url(#TranspMask_5)">
      <path d="M 104.614,105.81 L 104.614,132.812 L 131.616,132.812 L 131.616,105.81 L 104.614,105.81 Z" stroke="none" marker-start="none" marker-end="none"/>
      <path d="M 108.158,105.81 L 110.026,113.398 L 106.399,113.398 L 106.399,116.052 L 110.669,116.052 L 112.258,122.516 L 106.399,122.516 L 106.399,125.171 L 112.9,125.171 L 114.767,132.812 L 117.986,132.812 L 116.119,125.171 L 122.879,125.171 L 124.746,132.812 L 127.985,132.812 L 126.119,125.171 L 129.831,125.171 L 129.831,122.516 L 125.475,122.516 L 123.864,116.052 L 129.831,116.052 L 129.831,113.398 L 123.222,113.398 L 121.355,105.81 L 118.136,105.81 L 119.982,113.398 L 113.243,113.398 L 111.376,105.81 L 108.158,105.81 Z M 120.624,116.052 L 122.235,122.516 L 115.475,122.516 L 113.89,116.052 L 120.624,116.052 Z" stroke-width="0.055" stroke="none" fill="#000000" stroke-linejoin="miter" marker-start="none" marker-end="none" stroke-miterlimit="79.8403193612775"/>
     </g>
     <mask id="TranspMask_6">
      <rect x="-10%" y="-10%" width="120%" height="120%" fill="#202020" stroke="none"/>
     </mask>
     <g id="Group_7" mask="url(#TranspMask_6)">
      <path d="M 6.364,52.935 L 6.364,76.187 L 29.616,76.187 L 29.616,52.935 L 6.364,52.935 Z" stroke="none" marker-start="none" marker-end="none"/>
      <path d="M 9.416,52.935 L 11.024,59.469 L 7.901,59.469 L 7.901,61.754 L 11.578,61.754 L 12.946,67.321 L 7.901,67.321 L 7.901,69.607 L 13.499,69.607 L 15.107,76.187 L 17.879,76.187 L 16.271,69.607 L 22.092,69.607 L 23.7,76.187 L 26.489,76.187 L 24.882,69.607 L 28.079,69.607 L 28.079,67.321 L 24.328,67.321 L 22.941,61.754 L 28.079,61.754 L 28.079,59.469 L 22.388,59.469 L 20.78,52.935 L 18.008,52.935 L 19.598,59.469 L 13.795,59.469 L 12.187,52.935 L 9.416,52.935 Z M 20.151,61.754 L 21.538,67.321 L 15.717,67.321 L 14.351,61.754 L 20.151,61.754 Z" stroke-width="0.048" stroke="none" fill="#000000" stroke-linejoin="miter" marker-start="none" marker-end="none" stroke-miterlimit="79.8403193612775"/>
     </g>
     <mask id="TranspMask_7">
      <rect x="-10%" y="-10%" width="120%" height="120%" fill="#0d0d0d" stroke="none"/>
     </mask>
     <g id="Group_8" mask="url(#TranspMask_7)">
      <path d="M 72.804,36.885 L 72.804,46.937 L 82.856,46.937 L 82.856,36.885 L 72.804,36.885 Z" stroke="none" marker-start="none" marker-end="none"/>
      <path d="M 74.124,36.885 L 74.818,39.71 L 73.468,39.71 L 73.468,40.698 L 75.058,40.698 L 75.649,43.104 L 73.468,43.104 L 73.468,44.092 L 75.888,44.092 L 76.584,46.937 L 77.782,46.937 L 77.087,44.092 L 79.603,44.092 L 80.299,46.937 L 81.504,46.937 L 80.809,44.092 L 82.192,44.092 L 82.192,43.104 L 80.57,43.104 L 79.97,40.698 L 82.192,40.698 L 82.192,39.71 L 79.732,39.71 L 79.036,36.885 L 77.838,36.885 L 78.526,39.71 L 76.017,39.71 L 75.321,36.885 L 74.124,36.885 Z M 78.764,40.698 L 79.364,43.104 L 76.848,43.104 L 76.257,40.698 L 78.764,40.698 Z" stroke-width="0.02" stroke="none" fill="#000000" stroke-linejoin="miter" marker-start="none" marker-end="none" stroke-miterlimit="79.8403193612775"/>
     </g>
     <mask id="TranspMask_8">
      <rect x="-10%" y="-10%" width="120%" height="120%" fill="#0d0d0d" stroke="none"/>
     </mask>
     <g id="Group_9" mask="url(#TranspMask_8)">
      <path d="M 3.682,24.004 L 3.682,37.806 L 17.484,37.806 L 17.484,24.004 L 3.682,24.004 Z" stroke="none" marker-start="none" marker-end="none"/>
      <path d="M 5.494,24.004 L 6.448,27.883 L 4.594,27.883 L 4.594,29.239 L 6.777,29.239 L 7.589,32.543 L 4.594,32.543 L 4.594,33.9 L 7.917,33.9 L 8.872,37.806 L 10.517,37.806 L 9.563,33.9 L 13.018,33.9 L 13.973,37.806 L 15.628,37.806 L 14.674,33.9 L 16.572,33.9 L 16.572,32.543 L 14.345,32.543 L 13.522,29.239 L 16.572,29.239 L 16.572,27.883 L 13.194,27.883 L 12.239,24.004 L 10.594,24.004 L 11.538,27.883 L 8.093,27.883 L 7.138,24.004 L 5.494,24.004 Z M 11.866,29.239 L 12.689,32.543 L 9.234,32.543 L 8.423,29.239 L 11.866,29.239 Z" stroke-width="0.028" stroke="none" fill="#000000" stroke-linejoin="miter" marker-start="none" marker-end="none" stroke-miterlimit="79.8403193612775"/>
     </g>
     <mask id="TranspMask_9">
      <rect x="-10%" y="-10%" width="120%" height="120%" fill="#0d0d0d" stroke="none"/>
     </mask>
     <g id="Group_10" mask="url(#TranspMask_9)">
      <path d="M 133.854,139.993 L 143.906,139.993 M 143.906,129.941 L 133.854,129.941 L 133.854,139.993" stroke="none"/>
      <path d="M 135.174,129.941 L 135.868,132.766 L 134.518,132.766 L 134.518,133.754 L 136.108,133.754 L 136.699,136.16 L 134.518,136.16 L 134.518,137.148 L 136.938,137.148 L 137.634,139.993 L 138.832,139.993 L 138.137,137.148 L 140.653,137.148 L 141.349,139.993 L 142.554,139.993 L 141.859,137.148 L 143.242,137.148 L 143.242,136.16 L 141.62,136.16 L 141.02,133.754 L 143.242,133.754 L 143.242,132.766 L 140.782,132.766 L 140.086,129.941 L 138.888,129.941 L 139.576,132.766 L 137.067,132.766 L 136.371,129.941 L 135.174,129.941 Z M 139.814,133.754 L 140.414,136.16 L 137.898,136.16 L 137.307,133.754 L 139.814,133.754 Z" stroke-width="0.02" stroke="none" fill="#000000" stroke-linejoin="miter" marker-start="none" marker-end="none" stroke-miterlimit="79.8403193612775"/>
     </g>
     <mask id="TranspMask_10">
      <rect x="-10%" y="-10%" width="120%" height="120%" fill="#0d0d0d" stroke="none"/>
     </mask>
     <g id="Group_11" mask="url(#TranspMask_10)">
      <path d="M 101.464,71.91 L 101.464,85.712 L 115.266,85.712 L 115.266,71.91 L 101.464,71.91 Z" stroke="none" marker-start="none" marker-end="none"/>
      <path d="M 103.276,71.91 L 104.23,75.789 L 102.376,75.789 L 102.376,77.145 L 104.559,77.145 L 105.371,80.449 L 102.376,80.449 L 102.376,81.806 L 105.699,81.806 L 106.654,85.712 L 108.299,85.712 L 107.345,81.806 L 110.8,81.806 L 111.755,85.712 L 113.41,85.712 L 112.456,81.806 L 114.354,81.806 L 114.354,80.449 L 112.127,80.449 L 111.304,77.145 L 114.354,77.145 L 114.354,75.789 L 110.976,75.789 L 110.021,71.91 L 108.376,71.91 L 109.32,75.789 L 105.875,75.789 L 104.92,71.91 L 103.276,71.91 Z M 109.648,77.145 L 110.471,80.449 L 107.016,80.449 L 106.205,77.145 L 109.648,77.145 Z" stroke-width="0.028" stroke="none" fill="#000000" stroke-linejoin="miter" marker-start="none" marker-end="none" stroke-miterlimit="79.8403193612775"/>
     </g>
    </g>
   </g>
  </g>
 </g>
</svg>
